epam-assets/icon-sources/18/editor-chart-histogram.svg

<svg xmlns="http://www.w3.org/2000/svg" width="18" height="18" fill="none" viewBox="0 0 18 18">
  <path fill="#6C6F80" fill-rule="evenodd" d="M2.25 2.25h1.5v7.5h3v-4.5h3v3h3v3h3v4.5H2.25V2.25Z" clip-rule="evenodd"/>
</svg>

<svg width="18" height="18" viewBox="0 0 18 18" fill="none" xmlns="http://www.w3.org/2000/svg">
<g id="18/editor-chart-histogram">
<path id="icon" fill-rule="evenodd" clip-rule="evenodd" d="M2.25 2.25H3.75V9.75H6.75V5.25H9.75V8.25H12.75V11.25H15.75V15.75H2.25V2.25Z" fill="#6C6F80"/>
</g>
</svg>
